X:17
T:Blackthorn Stick
R:Jig
M:6/8
L:1/8
K:G
d|:gfg ege|dBG AGE|DGG FGA|BGB A2d|
|gfg age|dBG AGE|DGG FGA|BGG G2d:|
|:edd gdd|edd gdd|ede gfe|dcB A2d|
|gfg age|dBG AGE|DGG FGA|BGG G2:|
